X: 20581
M: 2/4
L: 1/16
K: D
[|\
d4 f3d | d2c2 e2c2 | B2A2F2E2 | d3B B3G |\
d2f2d2 "_song"A2 | d3A d2e2 | f4 z2f2 |\
f3e (df)(gf) | (e3c)A2z2 | (d3e) (f2d2) | (d2c2)B2A2 |\
(d2B2)A2F2 | A4 z2A2 | d3e f3d |
c3d e3c |\


